images/logo.svg

<svg width="100" height="31" viewBox="0 0 649 202" fill="none" xmlns="http://www.w3.org/2000/svg">
<path d="M613.075 51.7L595.035 109.78L574.135 51.4799C573.035 48.6199 571.055 47.08 567.975 47.08H544.215C540.255 47.08 538.495 49.7199 539.815 53.46L578.535 155.32L565.335 194.92C564.015 198.88 565.995 201.08 569.955 201.08H593.715C596.795 201.08 599.215 199.76 600.095 196.68L647.615 53.24C648.935 49.28 646.955 47.08 642.995 47.08H619.235C616.155 47.08 613.955 48.62 613.075 51.7Z" fill="#E54F34"/>
<path d="M56.7751 160.16C86.2551 160.16 110.895 144.76 110.895 113.96C110.895 80.08 80.9751 72.16 58.9751 64.46C46.2151 59.84 37.1951 55.44 37.1951 46.2C37.1951 39.82 42.2551 34.32 53.2551 34.32C63.3751 34.32 69.0951 38.06 70.8551 46.2C71.5151 49.72 73.2751 51.48 76.5751 51.48H100.775C104.295 51.48 106.495 49.5 106.275 45.76C103.635 13.86 78.9951 0 53.2551 0C27.0751 0 1.9951 15.4 1.9951 46.2C1.9951 79.86 29.4951 88.88 51.2751 96.36C64.6951 100.98 75.6951 104.94 75.6951 113.96C75.6951 120.34 71.0751 125.84 56.7751 125.84C43.7951 125.84 37.1951 121.88 35.4351 113.96C34.7751 110.44 33.0151 108.68 29.7151 108.68H5.51511C1.9951 108.68 -0.204895 110.66 0.0151049 114.4C2.6551 146.3 27.9551 160.16 56.7751 160.16Z" fill="black"/>
<path d="M193.158 44C178.418 44 167.638 49.06 160.378 57.42V52.58C160.378 49.06 158.398 47.08 154.878 47.08H132.878C129.358 47.08 127.378 49.06 127.378 52.58V195.58C127.378 199.1 129.358 201.08 132.878 201.08H154.878C158.398 201.08 160.378 199.1 160.378 195.58V146.96C167.638 155.32 178.418 160.16 193.158 160.16C221.978 160.16 245.738 134.86 245.738 102.08C245.738 69.3 221.978 44 193.158 44ZM186.558 128.92C171.378 128.92 160.378 118.58 160.378 102.08C160.378 85.58 171.378 75.24 186.558 75.24C201.738 75.24 212.738 85.58 212.738 102.08C212.738 118.58 201.738 128.92 186.558 128.92Z" fill="black"/>
<path d="M317.248 160.16C349.588 160.16 375.548 134.86 375.548 102.08C375.548 69.3 349.588 44 317.248 44C284.908 44 258.948 69.3 258.948 102.08C258.948 134.86 284.908 160.16 317.248 160.16ZM317.248 128.04C302.948 128.04 291.948 117.7 291.948 102.08C291.948 86.46 302.948 76.12 317.248 76.12C331.548 76.12 342.548 86.46 342.548 102.08C342.548 117.7 331.548 128.04 317.248 128.04Z" fill="black"/>
<path d="M450.094 45.32C439.094 47.08 430.294 53.46 427.214 64.68V52.58C427.214 49.06 425.234 47.08 421.714 47.08H399.714C396.194 47.08 394.214 49.06 394.214 52.58V151.58C394.214 155.1 396.194 157.08 399.714 157.08H421.714C425.234 157.08 427.214 155.1 427.214 151.58V105.16C427.214 87.56 439.094 81.4 451.414 81.84C454.274 81.84 455.814 80.08 455.814 76.56V50.6C455.814 47.08 453.834 44.66 450.094 45.32Z" fill="black"/>
<path d="M528.251 47.08H516.151V17.38C516.151 13.86 514.171 11.88 510.651 11.88H488.651C485.131 11.88 483.151 13.86 483.151 17.38V47.08H471.051C467.531 47.08 465.551 49.06 465.551 52.58V73.26C465.551 76.78 467.531 78.76 471.051 78.76H483.151V151.58C483.151 155.1 485.131 157.08 488.651 157.08H510.651C514.171 157.08 516.151 155.1 516.151 151.58V78.76H528.251C531.771 78.76 533.751 76.78 533.751 73.26V52.58C533.751 49.06 531.771 47.08 528.251 47.08Z" fill="black"/>
</svg>

<svg fill="none" height="31" viewBox="0 0 649 202" width="100" xmlns="http://www.w3.org/2000/svg"><path d="m613.075 51.7-18.04 58.08-20.9-58.3001c-1.1-2.86-3.08-4.3999-6.16-4.3999h-23.76c-3.96 0-5.72 2.6399-4.4 6.38l38.72 101.86-13.2 39.6c-1.32 3.96.66 6.16 4.62 6.16h23.76c3.08 0 5.5-1.32 6.38-4.4l47.52-143.44c1.32-3.96-.66-6.16-4.62-6.16h-23.76c-3.08 0-5.28 1.54-6.16 4.62z" fill="#e54f34"/><g fill="#000"><path d="m56.7751 160.16c29.48 0 54.1199-15.4 54.1199-46.2 0-33.88-29.9199-41.8-51.9199-49.5-12.76-4.62-21.78-9.02-21.78-18.26 0-6.38 5.06-11.88 16.06-11.88 10.12 0 15.84 3.74 17.6 11.88.66 3.52 2.42 5.28 5.72 5.28h24.1999c3.52 0 5.72-1.98 5.5-5.72-2.64-31.9-27.2799-45.76-53.0199-45.76-26.18 0-51.26 15.4-51.26 46.2 0 33.66 27.5 42.68 49.28 50.16 13.42 4.62 24.42 8.58 24.42 17.6 0 6.38-4.62 11.88-18.92 11.88-12.98 0-19.58-3.96-21.34-11.88-.66-3.52-2.42-5.28-5.72-5.28h-24.19999c-3.52001 0-5.720005 1.98-5.5000051 5.72 2.6399951 31.9 27.9399951 45.76 56.7599951 45.76z"/><path d="m193.158 44c-14.74 0-25.52 5.06-32.78 13.42v-4.84c0-3.52-1.98-5.5-5.5-5.5h-22c-3.52 0-5.5 1.98-5.5 5.5v143c0 3.52 1.98 5.5 5.5 5.5h22c3.52 0 5.5-1.98 5.5-5.5v-48.62c7.26 8.36 18.04 13.2 32.78 13.2 28.82 0 52.58-25.3 52.58-58.08s-23.76-58.08-52.58-58.08zm-6.6 84.92c-15.18 0-26.18-10.34-26.18-26.84s11-26.84 26.18-26.84 26.18 10.34 26.18 26.84-11 26.84-26.18 26.84z"/><path d="m317.248 160.16c32.34 0 58.3-25.3 58.3-58.08s-25.96-58.08-58.3-58.08-58.3 25.3-58.3 58.08 25.96 58.08 58.3 58.08zm0-32.12c-14.3 0-25.3-10.34-25.3-25.96s11-25.96 25.3-25.96 25.3 10.34 25.3 25.96-11 25.96-25.3 25.96z"/><path d="m450.094 45.32c-11 1.76-19.8 8.14-22.88 19.36v-12.1c0-3.52-1.98-5.5-5.5-5.5h-22c-3.52 0-5.5 1.98-5.5 5.5v99c0 3.52 1.98 5.5 5.5 5.5h22c3.52 0 5.5-1.98 5.5-5.5v-46.42c0-17.6 11.88-23.76 24.2-23.32 2.86 0 4.4-1.76 4.4-5.28v-25.96c0-3.52-1.98-5.94-5.72-5.28z"/><path d="m528.251 47.08h-12.1v-29.7c0-3.52-1.98-5.5-5.5-5.5h-22c-3.52 0-5.5 1.98-5.5 5.5v29.7h-12.1c-3.52 0-5.5 1.98-5.5 5.5v20.68c0 3.52 1.98 5.5 5.5 5.5h12.1v72.82c0 3.52 1.98 5.5 5.5 5.5h22c3.52 0 5.5-1.98 5.5-5.5v-72.82h12.1c3.52 0 5.5-1.98 5.5-5.5v-20.68c0-3.52-1.98-5.5-5.5-5.5z"/></g></svg>
